X:1
T:Title
L:1/8
M:2/4
K:Bb
V:1 treble nm="Grand Piano"
V:1
 z2[Q:1/4=100] F/F/F | B>A- AG | FG FE | E2 D2- | D2 FF | B>A- AG | FA Bc | c2 B2- | BB B/B/A | %9
 c>A- A2- | AA AG/G/ | B>G- G2- | GG GF | A>F- F2- | F2 D/D/E | FG AB | cd/e/ dc | c2 B2 | z D EF | %19
 G2 E2- | EB AG | F4- | FD EF | G2 E2- | EB AG | F2 GA | BB/B/ BB | A>G F2- | FG- G/GG/ | F4- | %30
 FD EF | G2 E2- | EA AA | AA Bc | B4- | B2 z2 |] %36

